**kern	**kern	**kern	**kern	**harm
*staff4	*staff3	*staff2	*staff1	*staff1
=1-	=1-	=1-	=1-	=1-
*clefF4	*clefF4	*clefG2	*clefG2	*
*k[b-e-a-]	*k[b-e-a-]	*k[b-e-a-]	*k[b-e-a-]	*
*M4/4	*M4/4	*M4/4	*M4/4	*
*	*	*	*MM100	*
*E-:	*E-:	*E-:	*E-:	*E-:
1r	1r	1r	2r	.
.	.	.	4r	.
.	.	.	8r	.
.	.	.	16B-/LL	.
.	.	.	16e-/JJ	.
=2	=2	=2	=2	=2
4E-\	8r	8r	2e-/	I
.	8G\L	8e-/L	.	.
4r	8G\	8e-/	.	.
.	8G\J	8e-/J	.	.
4BB-/	8r	8r	4.b-\	V7
.	8A-\L	8d/L	.	.
4r	8A-\	8d/	.	.
.	8A-\J	8d/J	16a-/LL	.
.	.	.	16f/JJ	.
=3	=3	=3	=3	=3
4EE-/	8r	8r	8e-/L	I
.	8G\L	8e-/L	8g/J	.
4r	8G\	8e-/	8b-\L	.
.	8G\J	8e-/J	16ee-\L	.
.	.	.	16b-\JJ	.
4E-\	8r	8r	4.b-\	V7/IV
.	8G\L	8d-/L	.	.
4r	8G\	8d-/	.	.
.	8G\J	8d-/J	8bn\	.
=4	=4	=4	=4	=4
!!linebreak:original
4AA-/	8r	8r	2cc\	IV
.	8A-\L	8c/L	.	.
4r	8A-\	8c/	.	.
.	8A-\J	8c/J	.	.
4BB-/	8r	8r	4.a-/	V7
.	8F\L	8d/L	.	.
4r	8F\	8d/	.	.
.	8F\J	8d/J	16f/LL	.
.	.	.	16d/JJ	.
=5	=5	=5	=5	=5
4E-'\	4G'\	4e-'/	8e-/L	I
.	.	.	8g/J	.
4BB-'/	4A-'\	4d'/	8b-/L	V7
.	.	.	16a-/L	.
.	.	.	16f/JJ	.
4EE-/	4G\	4e-/	4e-/	I
4r	4r	4r	8r	.
.	.	.	16B-/LL	.
.	.	.	16e-/JJ	.
=6	=6	=6	=6	=6
4E-'\	2r	2r	8e-/L	I
.	.	.	16B-/L	.
.	.	.	16f/JJ	.
4D'\	.	.	8f/L	V6
.	.	.	16B-/L	.
.	.	.	16g/JJ	.
4E-\	8r	8r	4g'/	I
*	*clefG2	*	*	*
.	16dd\LL	16ff#\LL	.	.
.	16ee-\JJ	16gg\JJ	.	.
4r	4ee-'\	4gg'\	8r	.
.	.	.	16B-/LL	.
.	.	.	16g/JJ	.
=7	=7	=7	=7	=7
!!linebreak:original
4E-'\	2r	2r	8g/L	I
.	.	.	16B-/L	.
.	.	.	16a-/JJ	.
4F'\	.	.	8a-/L	V43
.	.	.	16B-/L	.
.	.	.	16b-/JJ	.
4G'\	8r	8r	4b-'\	I6
.	16f#/LL	16aan\LL	.	.
.	16g/JJ	16bb-\JJ	.	.
4r	4g'/	4bb-'\	8r	.
.	.	.	16b-\LL	.
.	.	.	16bb-\JJ	.
=8	=8	=8	=8	=8
4D'\	4f'/	4b-'\	16bb-\LL	V65
.	.	.	16aa-\	.
.	.	.	16b-\	.
.	.	.	16aa-\JJ	.
4E-'\	4g'/	4b-'\	16aa-\LL	I
.	.	.	16gg\	.
.	.	.	16b-\	.
.	.	.	16bb-\JJ	.
4D'\	4f'/	4b-'\	16bb-\LL	V65
.	.	.	16aa-\	.
.	.	.	16b-\	.
.	.	.	16aa-\JJ	.
4E-'\	4e-'/	4b-'\	16aa-\LL	I
.	.	.	16gg\	.
.	.	.	16cc\	.
.	.	.	16ccc\JJ	.
=9	=9	=9	=9	=9
!!pagebreak:original
2AA-/	4.f/	4cc\	8.ccc\L	IV
.	.	.	16gg\Jk	.
.	.	16dd\LL	16bb-\LL	.
.	.	16cc\	16aa-\	.
*	*clefF4	*	*	*
.	8A-\	16b-\	16gg\	.
.	.	16a-\JJ	16ff\JJ	.
4BB-/	4B-\	4g/	4ee-\	C64
4r	4r	4f'/	8dd/L	V
.	.	.	16B-/L	.
.	.	.	16e-/JJ	.
=10	=10	=10	=10	=10
4E-\	8r	8r	2e-/	I
.	8G\L	8e-/L	.	.
4r	8G\	8e-/	.	.
.	8G\J	8e-/J	.	.
4BB-/	8r	8r	4.b-\	V7
.	8A-\L	8d/L	.	.
4r	8A-\	8d/	.	.
.	8A-\J	8d/J	16a-/LL	.
.	.	.	16f/JJ	.
=11	=11	=11	=11	=11
4EE-/	8r	8r	8e-/L	I
.	8G\L	8e-/L	8g/J	.
4r	8G\	8e-/	8b-\L	.
.	8G\J	8e-/J	16ee-\L	.
.	.	.	16b-\JJ	.
4E-\	8r	8r	4.b-\	V7/IV
.	8G\L	8d-/L	.	.
4r	8G\	8d-/	.	.
.	8G\J	8d-/J	8bn\	.
=12	=12	=12	=12	=12
!!linebreak:original
4AA-/	8r	8r	2cc\	IV
.	8A-\L	8c/L	.	.
4r	8A-\	8c/	.	.
.	8A-\J	8c/J	.	.
4BB-/	8r	8r	4.a-/	V7
.	8F\L	8d/L	.	.
4r	8F\	8d/	.	.
.	8F\J	8d/J	16f/LL	.
.	.	.	16d/JJ	.
=13	=13	=13	=13	=13
4E-'\	4G'\	4e-'/	8e-/L	I
.	.	.	8g/J	.
4BB-'/	4A-'\	4d'/	8b-/L	V7
.	.	.	16a-/L	.
.	.	.	16f/JJ	.
8EE-/L	4G\	4e-/	4e-/	I
8GG/J	.	.	.	.
8BB-/L	4r	4r	8r	.
16AA-/L	.	.	16b-\LL	.
16FF/JJ	.	.	16gg\JJ	.
=14	=14	=14	=14	=14
*	*clefG2	*	*	*
4EE-/	8e-/L	2b-\	2gg\	I
.	8g/J	.	.	.
4r	8b-/L	.	.	.
.	16g/L	.	.	.
.	16e-/JJ	.	.	.
8D\L	2d/	8bn\L	4.aa-\	viio65/vi
8F\J	.	8dd\J	.	.
8A-\L	.	8ff\L	.	.
16F\L	.	16dd\L	8bn\	.
16D\JJ	.	16b\JJ	.	.
=15	=15	=15	=15	=15
!!linebreak:original
2E-\	2g/	2cc\	8cc\L	vi6
.	.	.	8ee-\J	.
.	.	.	8gg\L	.
.	.	.	16ee-\L	.
.	.	.	16cc\JJ	.
*B-:	*B-:	*B-:	*B-:	*B-:
2F\	2e-/	8c/L	4b-\	V7
.	.	8e-/J	.	.
.	.	8f#/L	4an/	.
.	.	16e-/L	.	.
.	.	16c/JJ	.	.
=16	=16	=16	=16	=16
[1F	2d/	2d/	8b-\L	I64
.	.	.	8dd\J	.
.	.	.	8ff\L	.
.	.	.	16dd\L	.
.	.	.	16bn\JJ	.
*	*clefF4	*	*	*
.	2An\	2e-/	8cc\L	V7
.	.	.	8ee-\J	.
.	.	.	8gg\L	.
.	.	.	16ee-\L	.
.	.	.	16cc\JJ	.
=17	=17	=17	=17	=17
1F_	2B-\	2d/	8dd\L	I64
.	.	.	8ff\J	.
.	.	.	8bb-\L	.
.	.	.	16ff\L	.
.	.	.	16dd\JJ	.
*	*	*clefF4	*	*
.	2G\	2B-\	8een\L	viio
.	.	.	8gg\J	.
.	.	.	8bb-\L	.
.	.	.	16gg\L	.
.	.	.	16ee\JJ	.
=18	=18	=18	=18	=18
!!pagebreak:original
1F_	4An\	4c\	8ff\L	V
.	.	.	16cc\L	.
.	.	.	16an\JJ	.
.	4G\	4B-\	8ff\L	V7/V
.	.	.	16een\L	.
.	.	.	16cc\JJ	.
.	4A\	4c\	8ff\L	V
.	.	.	16cc\L	.
.	.	.	16a\JJ	.
.	4G\	4B-\	8ff\L	V7/V
.	.	.	16ee\L	.
.	.	.	16cc\JJ	.
=19	=19	=19	=19	=19
*	*	*clefG2	*	*
1F_	4An\	4c/	8ff\L	V
.	.	.	16cc\L	.
.	.	.	16an\JJ	.
.	4B-\	4d/	8ff\L	I64
.	.	.	16dd\L	.
.	.	.	16b-\JJ	.
.	4c\	4e-/	8ff\L	V7
.	.	.	16ee-\L	.
.	.	.	16cc\JJ	.
.	4B-\	4d/	8ff\L	I64
.	.	.	16dd\L	.
.	.	.	16b-\JJ	.
=20	=20	=20	=20	=20
!!linebreak:original
4.F\]	4An\	4c/	4.f/	V
.	4r	4r	.	.
16D\LL	.	.	16f#/LL	ii6
16E-\JJ	.	.	16g/JJ	.
2E-\	2r	8r	4.g/	.
.	.	16Bn/LL	.	.
.	.	16c/JJ	.	.
.	.	[4c/	.	.
.	.	.	16ee-\LL	.
.	.	.	16cc\JJ	.
=21	=21	=21	=21	=21
4.F\	8r	8c/L]	4b-\	V7
.	16Bn\LL	16d/L	.	.
.	16c\JJ	16e-/JJ	.	.
.	8c\L	8e-/L	8an/L	.
8G\	8B-\J	8d/J	8b-/J	vi
4.E-\	4.e-\	4.g/	8.cc\L	IV
.	.	.	16dd\Jk	.
.	.	.	8ee-\L	V7
8F\	8An\	8e-/	16f\L	.
.	.	.	16b-\JJ	.
=22	=22	=22	=22	=22
8BB-/L	4B-\	8d/L	8b-\L	I
8BB-/	.	8d/J	8b-\J	.
8BB-/	4r	8d/L	8b-\L	.
8BB-/J	.	16e-/L	16cc\L	.
.	.	16c/JJ	16an\JJ	.
*	*clefG2	*	*	*
8BB-/L	8f/L	8d/L	8b-\L	.
8BB-/	8f/	8b-/J	8dd\J	.
8BB-/	8f/	8b-\L	8dd\L	.
8BB-/J	8f/J	16cc\L	16ee-\L	.
.	.	16an\JJ	16cc\JJ	.
=23	=23	=23	=23	=23
!!linebreak:original
8BB-/L	8f/L	8b-\L	8dd\L	.
8BB-/	8B-/	8dd\J	8ff\J	.
8BB-/	8B-/	8dd\L	8ff\L	.
8BB-/J	8B-/J	16ee-\L	16gg\L	.
.	.	16cc\JJ	16ee-\JJ	.
8BB-\L	8B-/L	8dd\L	8ff\L	.
8D\ 8B-\	8f/ 8b-/	8b-\ 8ff\	8d\ 8b-\ 8bb-\	.
8D\ 8B-\	8f/ 8b-/	8b-\ 8ff\	8d\ 8b-\ 8bb-\	.
8D\J 8B-\	8f/J 8b-/	8b-\J 8ff\	8d\J 8b-\ 8bb-\	.
=24	=24	=24	=24	=24
4D\ 4B-\	4f/ 4b-/	4b-\ 4ff\	8.ddd\L	.
.	.	.	16ccc\Jk	.
4r	4r	4r	16bb-\LL	.
.	.	.	16aa-\	.
.	.	.	16gg\	.
.	.	.	16ff\JJ	.
8r	8r	8r	8ff\L	.
8G\	8b-\	8b-\	8een'\	viio6/V
8r	8r	8r	8gg\	.
8An\	8an/	8cc\	8ff'\J	V6
=25	=25	=25	=25	=25
8r	8r	8r	8ccc\L	.
8F\	8cc\	8an/	8ee-'\	V7
8r	8r	8r	8ee-\	.
8G\	8b-\	8b-\	8dd'\J	vi
8r	8r	8r	8ff#\L	.
8E-\	8g/	8b-\	8gg'\	IV
8r	8r	8r	8aan\	.
8En\	8g/	8dd-\	8bb-'\J	viio7/V
=26	=26	=26	=26	=26
!!pagebreak:original
2F\	2b-\	2dd\	24f/LL	C64
.	.	.	24b-/	.
.	.	.	24an/	.
.	.	.	24cc/	.
.	.	.	24b-/	.
.	.	.	24dd/JJ	.
.	.	.	24cc\LL	.
.	.	.	24ee-\	.
.	.	.	24dd\	.
.	.	.	24ff\	.
.	.	.	24ee-\	.
.	.	.	24gg\JJ	.
2r	2r	2r	24ff\LL	.
.	.	.	24bb-\	.
.	.	.	24aan\	.
.	.	.	24gg\	.
.	.	.	24ff\	.
.	.	.	24ee-\JJ	.
.	.	.	24dd/LL	.
.	.	.	24cc/	.
.	.	.	24b-/	.
.	.	.	24a/	.
.	.	.	24g/	.
.	.	.	24f/JJ	.
=27	=27	=27	=27	=27
!!linebreak:original
*	*clefF4	*	*	*
24G\LL	24B-\LL	24d-/LL	24en/LL	viio65/V
24G\	24B-\	24d-/	24e/	.
24G\	24B-\	24d-/	24e/	.
24G\	24B-\	24d-/	24e/	.
24G\	24B-\	24d-/	24e/	.
24G\JJ	24B-\JJ	24d-/JJ	24e/JJ	.
24An\LL	24F\LL	24c/LL	24e-/LL	V65
24A\	24F\	24c/	24e-/	.
24A\	24F\	24c/	24e-/	.
24A\	24F\	24c/	24e-/	.
24A\	24F\	24c/	24e-/	.
24A\JJ	24F\JJ	24c/JJ	24e-/JJ	.
4B-\	4F\	4B-/	24d\LL	I
.	.	.	24f\	.
.	.	.	24b-\	.
.	.	.	24dd\	.
.	.	.	24ff\	.
.	.	.	24aan\JJ	.
8r	8r	8r	8bb-\L	.
*	*clefG2	*	*	*
8D\	8b-\	[8b-\	8ff#\J	I+
=28	=28	=28	=28	=28
!!linebreak:original
4E-'\	4g'/	8b-\]	16gg'\	IV
.	.	.	16r	.
.	.	8r	8bbn\L	.
4r	4r	4r	16ccc'\Jk	.
.	.	.	16r	.
.	.	.	16eee-\LL	.
.	.	.	16ccc\JJ	.
8F\L	8d/L	8b-\L	24bb-\LL	C64
.	.	.	24ddd\	.
.	.	.	24fff\	.
8F\	8d/	8b-\	24fff\	.
.	.	.	24fff\	.
.	.	.	24fff\JJ	.
8F\	8d/	8b-\	24fff\LL	.
.	.	.	24ddd\	.
.	.	.	24bb-\	.
8F\J	8d/J	8b-\J	24fff\	.
.	.	.	24ddd\	.
.	.	.	24bb-\JJ	.
=29	=29	=29	=29	=29
8F\L	8c/L	8b-/L	4ff\	V7
8F\	8c/	8b-/	.	.
8F\	8e-/	8an/	4ccc\	.
8F\J	8e-/J	8a/J	.	.
4BB-/	4d/	4.b-\	[2bb-\	I
4r	4r	.	.	.
.	.	16b-\LL	.	.
.	.	16ee-\JJ	.	.
=30	=30	=30	=30	=30
!!pagebreak:original
1r	4g'/	8ee-\L	2.bb-\_	IV
.	.	16b-\L	.	.
.	.	16dd\JJ	.	.
.	4f'/	8dd\L	.	vi42
.	.	16b-\L	.	.
.	.	16gg\JJ	.	.
.	4e-'/	8gg\L	.	IV
.	.	16b-\L	.	.
.	.	16ff\JJ	.	.
.	4d'/	8ff\L	8bb-\L]	I6
.	.	8b-\J	16ff\L	.
.	.	.	16dd\JJ	.
=31	=31	=31	=31	=31
2r	4e-'/	4b-'\	8gg\L	ii65
.	.	.	16ee-\L	.
.	.	.	16cc\JJ	.
.	4f'/	4an'/	8ee-\L	V7
.	.	.	16cc\L	.
.	.	.	16an\JJ	.
*	*clefF4	*	*	*
4r	4.B-\	4b-\	[2b-\	I
8r	.	4r	.	.
16GG/LL	16B-\LL	.	.	.
16G/JJ	16e-\JJ	.	.	.
=32	=32	=32	=32	=32
!!linebreak:original
8G/L	8e-\L	2r	2.b-\_	IV
16FF/L	16B-\L	.	.	.
*	*clefG2	*	*	*
16F/JJ	16d\JJ	.	.	.
8F/L	8d/L	.	.	vi42
16EE-/L	16B-/L	.	.	.
16E-/JJ	16g/JJ	.	.	.
8E-/L	8g/L	4r	.	IV
16DD/L	16B-/L	.	.	.
16D/JJ	16f/JJ	.	.	.
8D\L	8f/L	8r	8b-\L]	I6
16D\L	16f/L	16a-/LL	16bn\L	viio65/ii
16E-\JJ	16e-/JJ	16g/JJ	16cc\JJ	.
=33	=33	=33	=33	=33
4E-'\	4e-'/	4g'/	8cc\L	ii6
.	.	.	16cc\L	.
.	.	.	16ee-\JJ	.
4F'\	4An'/	4c'/ 4e-'/	8ee-\L	V7
.	.	.	16f\L	.
.	.	.	16b-\JJ	.
4BB-/	4B-/	4B-'/ 4d'/	4b-\	I
4r	4r	4r	4r	.
*-	*-	*-	*-	*-
